app/assets/images/icons/active/article-pin.svg

<?xml version="1.0" encoding="UTF-8" standalone="no"?>
<svg width="32px" height="32px" viewBox="0 0 32 32" version="1.1" xmlns="http://www.w3.org/2000/svg" xmlns:xlink="http://www.w3.org/1999/xlink" xmlns:sketch="http://www.bohemiancoding.com/sketch/ns">
    <title>article-pin-green</title>
    <description>Created with Sketch (http://www.bohemiancoding.com/sketch)</description>
    <defs></defs>
    <g id="Points-of-interest" stroke="none" stroke-width="1" fill="none" fill-rule="evenodd" sketch:type="MSPage">
        <path d="M16.1469361,0 C22.8581522,0 28.297001,4.654 28.297001,11.648 C28.297001,18.482 22.1656507,21.417 18.9023414,25.788 C16.231413,29.357 16.1469361,32 16.1469361,32 C16.1469361,32 16.1250347,29.344 13.3915308,25.788 C10.0354013,21.417 4,18.684 4,11.648 C4,4.652 9.43780586,0 16.1469361,0 M12.24,7.011 L14.55,7.011 L14.55,8.054 L12.24,8.054 L12.24,8.054 L12.24,7.011 L12.24,7.011 Z M12.24,13.956 L17.635,13.956 L17.635,14.991 L12.24,14.991 L12.24,14.991 L12.24,13.956 L12.24,13.956 Z M19.939,12.669 L12.24,12.677 L12.24,11.674 L19.939,11.657 L19.939,12.669 L19.939,12.669 L19.939,12.669 L19.939,12.669 Z M19.939,10.357 L12.24,10.389 L12.24,9.365 L19.939,9.357 L19.939,10.357 L19.939,10.357 L19.939,10.357 L19.939,10.357 Z M19.869,5.511 L12.294,5.511 C11.689,5.511 11.2,6.004 11.2,6.609 L11.2,17.214 C11.2,17.82 11.689,18.312 12.294,18.312 L19.869,18.312 C20.475,18.312 20.965,17.82 20.965,17.214 L20.965,6.609 C20.965,6.004 20.475,5.511 19.869,5.511 L19.869,5.511 Z M19.869,5.511" id="article-pin--green" fill="#C7E6AA" sketch:type="MSShapeGroup"></path>
    </g>
</svg>

<svg width="32" height="32" viewBox="0 0 32 32" xmlns="http://www.w3.org/2000/svg" xmlns:sketch="http://www.bohemiancoding.com/sketch/ns"><title>article-pin-green</title><path d="M16.147 0c6.711 0 12.15 4.654 12.15 11.648 0 6.834-6.131 9.769-9.395 14.14-2.671 3.569-2.755 6.212-2.755 6.212s-.022-2.656-2.755-6.212c-3.356-4.371-9.392-7.104-9.392-14.14 0-6.996 5.438-11.648 12.147-11.648m-3.907 7.011h2.31v1.043h-2.31v-1.043zm0 6.945h5.395v1.035h-5.395v-1.035zm7.699-1.287l-7.699.008v-1.003l7.699-.017v1.012zm0-2.312l-7.699.032v-1.024l7.699-.008v1zm-.07-4.846h-7.575c-.605 0-1.094.493-1.094 1.098v10.605c0 .606.489 1.098 1.094 1.098h7.575c.606 0 1.096-.492 1.096-1.098v-10.605c0-.605-.49-1.098-1.096-1.098zm0 0" fill="#C7E6AA" sketch:type="MSShapeGroup"/></svg>
